X:1
T:Larbre damour
T:Larbre damour
T:Jean Guyot (Castileti)
C:Jean Guyot (Castileti)
%%score [ 1 2 [ 3 4 ] ]
L:1/8
Q:1/4=92
M:2/2
K:F
V:1 treble nm="Superius 1" snm="S 1"
V:2 treble nm="Superius 2" snm="S 2"
V:3 treble nm="Altus 1" snm="A 1"
V:4 treble nm="Altus 2" snm="A 2"
V:1
 g2 gg f2 d2 | e3 c d2 e2 | f4 e4 | z ggg f2 d2 | e2 c2 d2 e2 | f4 e4 | d2 cB A2 d2- | d2 c2 d4 | %8
w: Lar- bre da- mour, ung|fruict d'a- ma- ri-|tu- de,|lar- bre da- mour, ung|fruict d'a- ma- ri-|tu- *||* * de,|
 z2 d2 de f2 | z4 d2 de | ffdf ed e2- | e2 d2 z4 | d2 de f2 f2 | dffe fd d2 | z2 d2 d2 d2 | %15
w: se m'a don- nez,|se m'a don-|nez en lyeux de sa ly- es-|* se,|se- m'a don- nez en|lyeux de sa ly- es- * se|il est a-|
 GFGA BABc | d2 d2 g2 g2 | f6 ed | c2 f2 e4 | d4 z4 | z8 | z4 z2 G2 | c2 A2 B2 c2 | d3 e fg f2- | %24
w: me- * * * * * * *|re, il est a-|me- * *||re,||plain|de sol- li- ci-|tu- * * * *|
 f2 ed e2 d2- | dc f2 e4 | d4 z2 d2 | dfed cBAA | d3 B c2 d2- | d2 z2 B2 cd | c2 z2 z4 | %31
w: ||de, pour|la doul- ceur me vient au goust ru-|des- * * se,|_ pour la doul-|ceur,|
 d2 df ed cB | A2 G2 d4- | d8- | d4 z4 | z2 A2 d2 e2 | cc d2 d4 | z2 g4 e2 | f4 d2 d2 | %39
w: pour la doul- ceur _ _ _|_ me vient|_||me vient au|goust ru- des- se,.|Da- me|Ve- nus, vos-|
 e2 c2 d2 f2 | e4 d4 | g3 e f4 | d2 d2 e2 c2 | d2 f3 e e2- | ed d4 c2 | d8 |: f2 fe d4 | %47
w: tre be- a- ti-|tu- de,|da- me Ve-|nus, vos- tre be-|a- ti- * tu-||de,|tris- te se- roit|
 d2 de fd f2- | f2 ed c4- | c4 d2 de | fd f3 e d2- | d2 c2 d4- |1[M:2/4] d4 :|[M:2/2] d2 c2 d4 |2 %54
w: sans le nom de de- es-|* * * se,|_ sans- le nom|de de- es- * *|* * se|_|(es)- * se,|
 f2 fe d4 || _e2 ee e2 d2 | c4 B4- | B8 |] %58
w: tris- te se- roit|sans le nom de de-|es- se.|_|
V:2
 z4 d2 dd | c2 A2 B3 G | A2 B2 c4 | B4 z ddd | c2 A2 B3 G | A2 B2 c4 | B4 z4 | G2 GA BBGB | %8
w: Lar- bre da-|mour, ung fruict d'a-|ma- ri- ru-|de, lar dre da-|mour, ung fruict d'a-|ma- ri- tu-|de,|se m'a don- nez en lyeux de|
 AA A2 D2 z F | ED E2 D4 | z2 A2 ABcc | GcBA B4 | G4 z4 | A2 Ac cB A2 | B4 z2 d2 | d2 d2 GFGA | %16
w: sa ly- es- se, de|sa ly- es- se,|se m'a don- nez en|lyeux de sa ly- es-|se,|de sa- * ly- * es-|se, il|est a- me- * * *|
 BABc d4- | d4 c2 f2 | e2 d4 c2 | d4 z4 | z8 | z8 | z2 D2 G2 E2 | F2 G2 A2 B2 | A3 B cA B2- | %25
w: * * * * re,|_ il est|a- me- *|re,|||plain de sol-|li- ci- tu- *||
 BA d4 c2 | d8 | z4 A2 Ac | BAGG FE D2 | A4 z4 | z2 B2 Bd cB | AGFF G2 G2 | z4 A2 Ac | B3 A B2 G2 | %34
w: |de,|pour la doul-|ceur _ _ me vient _ au|goust|au- goust _ _ _|_ _ _ ru- des- se,|pour la doul-|ceur _ _ me|
 F2 F2 B2 AG- | GF/E/ F2 G2 z G | G2 B2 AG FE | D2 d4 c2 | d2 d4 B2 | c2 A2 A3 B | G2 A2 FD d2- | %41
w: vient ru- des- * *|* * * * se, me-|vient ru- des- * * *|se. Da- me|Ve- nus, vos-|tre be- a- ti-|tu- * de, _ da-|
 d2 c2 d2 d2- | d2 B2 c2 A2 | A3 B G2 A2 | F2 D2 G4 | A4 f2 fe |: d4 G2 GA | BG B2 A4- | A8 | %49
w: * me Ve- nus|_ vos- tre be-|a- ti- tu- *||de, tris- te se-|roit sans le nom|de de- es- se,|_|
 G2 GA BG B2 | A4 z4 | G2 GA BGAF |1[M:2/4] f2 fe :|[M:2/2] G2 GG AB G2- |2 G2 F2 G4- || G8- | %56
w: sans le nom de de- es-|se|sans le nom de de- es- se,|tris- te se-|sans le nom de de- es-|* * se.|_|
 G8- | G8 |] %58
w: ||
V:3
 z8 | z4 G2 GG | F2 D2 E3 C | D2 E2 F4 | E4 z GGG | F2 D2 E3 C | D2 E2 F4 | E4 D2 DE | %8
w: |Lar- bre da-|mour, ung fruict d'a-|ma- ri- tu-|de, lar- bre da-|mour, ung fruict d'a-|ma- ri- tu-|de, se m'a don-|
 F2 z2 A2 AB | ccGc BA B2 | A2 D2 EF G2 | G2 Bc d4 | z4 D2 DE | FFDG A G2 F | G3 A B4 | %15
w: nez se m'a don-|nez en lyeux de sa ly- es-|se, se m'a don- nez,|se m'a don- nez|se m'a don-|nez en lyeux de sa ly- es-|* * se,|
 z2 d2 d2 d2 | GFGA B3 c | A8 | z2 D2 G2 E2 | F2 G2 A3 B | cA B3 ABc | dB c3 G B2 | A4 G4 | z8 | %24
w: il est a-|me- * * * * *|re,|plain de sol-|li- ci- tu- *|||* de,||
 z8 | z4 A2 Ac | BAGG FE D2 | A4 z4 | G2 GB AG FE | F2 F2 G2 G2 | z2 G2 GB AG | FEDD EF GE | %32
w: |pour la doul-|ceur _ _ me vient _ au|goust|ru- des _ _ _ _ _|se, ru- des- se,|au- goust- * * *|* * * ru- des- * * *|
 F2 G4 F2 | G4 G2 GB | A4 z4 | A2 Ac BA GF | E2 D2 F3 G | A2 B4 AG | A4 z4 | z4 z2 d2- | %40
w: |se, ru- des- *|se,|me vient au goust _ _ _|_ ru- des- *|se. Da- me Ve-|nus,|vos-|
 dB c2 A2 A2 | B2 G2 A2 A2 | B4 G2 z2 | d4 B2 c2 | A2 A2 B2 G2 | F3 G A4 |: A2 z2 B2 BA | %47
w: * tre be- a- ti-|tu- de, da- me|Ve- nus,|tris- te se-|roit sans nom de|de- * es-|se, tris- te se-|
 G4 D2 DE | FD F2 E4- | E4 z4 | F2 FE DGAA | B2 G2 F3 G |1[M:2/4] A4 :|[M:2/2] B2 AG F2 B2 |2 %54
w: roit sans le nom|de de- es- se,|_|sans- le nom de _ _ de-|es- * * *||es- * * * *|
 A4 B2 BA || G2 C2 C2 D2 |"^b""^b" EC E2 D4- | D8 |] %58
w: se sans le- *|* nom de de-|es- * * se.|_|
V:4
 z8 | z8 | D2 DD C2 A,2 | B,2 G,2 A,2 B,2 | C4 G,4 | z DDD C2 A,2 | B,2 G,2 A,2 B,2 | C4 G,4 | %8
w: ||bre da- mour, ung fruict|d'a- ma- ri- tu-|de, lar-|bre da- mour, ung fruict|d'a- ma- ri- tu-|de, se|
 D2 DE FFDD | CB, C2 G,3 D | DEFF CDCB, | C2 G,2 G2 GA | BBGB AG A2 | DDFC FG D2 | G8- | G4 z4 | %16
w: m'a don- nez en lyeux de sa|ly- es- se, se m'a|don- nez en lyeux de sa ly- es-|se, se m'a don- nez|en lyeux de sa ly- es- se,|e, lyeux de sa ly- es- se,|il|_|
 z2 G2 G2 G2 | DCDE FEFG | A4 z2 A,2 | D2 B,2 C2 D2 | E2 G3 FDE | FG A3 G G2- | G2 F2 _E2 DC | %23
w: est a- me-|re, * * * * * * *|plain sol-|li- ci- tu- de,||||
 B,2 G,2 D4- | D4 z4 | z8 | G2 GB AG FE | D2 C2 F2 F2 | z8 | D2 DF _EDCB, | A,2 G,2 B,2 C2 | %31
w: * * pour|_||la doul- ceur me _ _ _|vient au goust pour||la doul- ceur me _ _ _|vient au- goust ru-|
 D4 C4 | D2 E2 D4 | G,4 z4 | D2 DF _EDCB, | A,2 A,2 G,2 C2- | C2 B,2 D3 E | F2 G2 E4 | D4 G4 | %39
w: des- se-||me|vient au goust ru- _ _ _|_ des- se. *||* Da- me|Ve- nus,|
 E2 F2 D2 D2 | E2 C2 D2 F2 | _E4 D4 | G4 E2 F2 | D2 D2 E2 C2 | D2 F2 _E4 | D8- |: D4 z4 | %47
w: vos- tre be- a-|ti- tu- de *|* tris-|te se- roit|sans le nom de|de- es- se,|tris-|_|
 z4 F2 FE | D4 A,2 A,B, | CG, C2 G,2 z2 | D2 DE FD F2 | E4 D4- |1[M:2/4]"^-natural" D4- :| %53
w: te se- roit|sans le nom de|de- es- se, sans|le nom de de- es- se,|* (es)-|_|
[M:2/2] E4 D4- |2 D4 z4 || C2 CD _E2 B,2 | C4 G,4- | G,8 |] %58
w: se, sans|_|le nom de de- es-|se. i-|_|

